icons/arrow-rounded-downright.svg

<svg width="24" height="24" viewBox="0 0 24 24" fill="none" xmlns="http://www.w3.org/2000/svg">
<path fill-rule="evenodd" clip-rule="evenodd" d="M16.6447 16.9304C16.9376 17.2232 17.4125 17.2232 17.7054 16.9304L20.2054 14.4304C20.6983 13.9375 20.6983 13.1626 20.2054 12.6697L17.7054 10.1697C17.4125 9.8768 16.9376 9.8768 16.6447 10.1697C16.3518 10.4626 16.3518 10.9375 16.6447 11.2304L18.9644 13.55L16.6447 15.8697C16.3518 16.1626 16.3518 16.6375 16.6447 16.9304Z" fill="black"/>
<path fill-rule="evenodd" clip-rule="evenodd" d="M3.42505 10.6C3.42505 12.7142 5.06084 14.35 7.17505 14.35L19.7751 14.35C20.1893 14.35 20.525 14.0142 20.525 13.6C20.525 13.1858 20.1893 12.85 19.7751 12.85L7.17505 12.85C5.88926 12.85 4.92505 11.8858 4.92505 10.6C4.92505 9.31419 5.88926 8.34997 7.17505 8.34997H11.175C11.5893 8.34997 11.925 8.01419 11.925 7.59997C11.925 7.18576 11.5893 6.84997 11.175 6.84997H7.17505C5.06084 6.84997 3.42505 8.48576 3.42505 10.6Z" fill="black"/>
</svg>

<svg xmlns="http://www.w3.org/2000/svg" fill="none" viewBox="0 0 24 24">
  <path fill="#000" fill-rule="evenodd" d="M16.645 16.93a.75.75 0 0 0 1.06 0l2.5-2.5a1.233 1.233 0 0 0 0-1.76l-2.5-2.5a.75.75 0 0 0-1.06 1.06l2.32 2.32-2.32 2.32a.75.75 0 0 0 0 1.06Z" clip-rule="evenodd"/>
  <path fill="#000" fill-rule="evenodd" d="M3.425 10.6c0 2.114 1.636 3.75 3.75 3.75h12.6a.75.75 0 0 0 0-1.5h-12.6c-1.286 0-2.25-.964-2.25-2.25s.964-2.25 2.25-2.25h4a.75.75 0 1 0 0-1.5h-4c-2.114 0-3.75 1.636-3.75 3.75Z" clip-rule="evenodd"/>
</svg>
